app/dist/common/images/directa-plus-plc.svg

<svg height="18" viewBox="0 0 18 18" width="18" xmlns="http://www.w3.org/2000/svg"><path d="m0 0h18v18h-18z" fill="#f0f3fa"/><path d="m7 6h-2v2h-2v2h2v2h2v-2h2v-2h-2z" fill="#575756"/><path d="m12.14 5h-4.14v1.5h4.03c.26 0 .47.22.47.5v4c0 .28-.21.5-.47.5h-4.03v1.5h4.14a1.9 1.9 0 0 0 1.86-1.95v-4.1a1.9 1.9 0 0 0 -1.86-1.95z" fill="#d57c30"/></svg>

<!-- by TradingView --><svg width="18" height="18" viewBox="0 0 18 18" xmlns="http://www.w3.org/2000/svg"><path fill="#F0F3FA" d="M0 0h18v18H0z"/><path d="M7 6H5v2H3v2h2v2h2v-2h2V8H7V6Z" fill="#575756"/><path d="M12.14 5H8v1.5h4.03c.26 0 .47.22.47.5v4c0 .28-.21.5-.47.5H8V13h4.14A1.9 1.9 0 0 0 14 11.05v-4.1A1.9 1.9 0 0 0 12.14 5Z" fill="#D57C30"/></svg>
